app/dist/common/images/container-store.svg

<svg height="18" width="18" xmlns="http://www.w3.org/2000/svg"><path d="m0 0h18v18h-18z" fill="#005dab"/><path d="m6 6v1.5h-1.33v4.5h-1.34v-4.5h-1.33v-1.5zm3.6 2c-.07-.34-.32-.67-.92-.67-.91 0-1.24.92-1.24 1.76 0 .83.49 1.66 1.17 1.66.66 0 .97-.4.97-.75h1.42c0 1.01-.91 2-2.29 2-1.64 0-2.71-1.38-2.71-3s1.07-3 2.71-3c1.17 0 2.17.65 2.2 2zm4.08-2c1.02 0 2.09.72 2.09 2h-1.27c.02-.51-.44-.82-.86-.82-.3 0-.8.2-.8.57 0 .43.9.5 1.67.74.77.23 1.49.6 1.49 1.62 0 1.43-1.1 1.89-2.26 1.89-1.22 0-2.3-.56-2.31-2h1.38c.03.66.42.86 1 .86.42 0 .8-.15.8-.57 0-.5-.7-.5-1.47-.72-.76-.23-1.6-.7-1.6-1.73 0-1.23 1.14-1.84 2.14-1.84z" fill="#fff"/></svg>

<!-- by TradingView --><svg xmlns="http://www.w3.org/2000/svg" width="18" height="18"><path fill="#005DAB" d="M0 0h18v18H0z"/><path d="M6 6v1.5H4.67V12H3.33V7.5H2V6h4zm3.6 2c-.07-.34-.32-.67-.92-.67-.91 0-1.24.92-1.24 1.76 0 .83.49 1.66 1.17 1.66.66 0 .97-.4.97-.75H11c0 1.01-.91 2-2.29 2C7.07 12 6 10.62 6 9s1.07-3 2.71-3c1.17 0 2.17.65 2.2 2H9.6zm4.08-2c1.02 0 2.09.72 2.09 2H14.5c.02-.51-.44-.82-.86-.82-.3 0-.8.2-.8.57 0 .43.9.5 1.67.74.77.23 1.49.6 1.49 1.62 0 1.43-1.1 1.89-2.26 1.89-1.22 0-2.3-.56-2.31-2h1.38c.03.66.42.86 1 .86.42 0 .8-.15.8-.57 0-.5-.7-.5-1.47-.72-.76-.23-1.6-.7-1.6-1.73 0-1.23 1.14-1.84 2.14-1.84z" fill="#fff"/></svg>
